src/actions/symbolic/bread-symbolic.svg

<svg width="16px" height="16px" version="1.1" viewBox="0 0 16 16" xmlns="http://www.w3.org/2000/svg">
 <path d="m8.4688 6c-0.042969 0.00391-0.085938 0.011719-0.125 0.027344l-3 1c-0.26562 0.085937-0.40625 0.36719-0.32031 0.63281 0.089843 0.26172 0.37109 0.40234 0.63281 0.31641l3-1c0.26562-0.089843 0.40625-0.37109 0.32031-0.63281-0.074218-0.21875-0.28125-0.35547-0.50781-0.34375zm0 2c-0.042969 0.00391-0.085938 0.011719-0.125 0.027344l-3 1c-0.26562 0.085937-0.40625 0.36719-0.32031 0.63281 0.089843 0.26172 0.37109 0.40234 0.63281 0.31641l3-1c0.26562-0.089843 0.40625-0.37109 0.32031-0.63281-0.074218-0.21875-0.28125-0.35547-0.50781-0.34375zm0 2c-0.042969 0.0039-0.085938 0.01172-0.125 0.02734l-3 1c-0.26562 0.08594-0.40625 0.36719-0.32031 0.63281 0.089843 0.26172 0.37109 0.40234 0.63281 0.31641l3-1c0.26562-0.089839 0.40625-0.37109 0.32031-0.63281-0.074218-0.21875-0.28125-0.35547-0.50781-0.34375z" fill="#363636"/>
 <path d="m3.5 1c-1.939 0-3.5 1.561-3.5 3.5 0 1.7693 1.2993 3.2218 3 3.4629v-1.0137c-1.1441-0.2302-2-1.2354-2-2.4492 0-1.385 1.115-2.5 2.5-2.5h9c1.385 0 2.5 1.115 2.5 2.5 0 1.2139-0.85593 2.219-2 2.4492v1.0137c1.7007-0.24105 3-1.6936 3-3.4629 0-1.939-1.561-3.5-3.5-3.5h-9z" fill="#363636" stop-color="#000000" style="paint-order:stroke fill markers"/>
 <path d="m2 7v6c0 1.108 0.892 2 2 2h8c1.108 0 2-0.892 2-2v-6h-1v6c0 0.554-0.446 1-1 1h-8c-0.554 0-1-0.446-1-1v-6h-1z" fill="#363636" stop-color="#000000" style="paint-order:stroke fill markers"/>
 <path d="m9 1v1h1.5c1.385 0 2.5 1.115 2.5 2.5 0 1.2139-0.85593 2.219-2 2.4492v0.050781 0.96289 5.0371c0 0.554-0.446 1-1 1h-1v1h1c1.108 0 2-0.892 2-2v-5.3398c1.1835-0.55955 2-1.7592 2-3.1602 0-1.939-1.561-3.5-3.5-3.5h-1.5z" fill="#363636" stop-color="#000000" style="paint-order:stroke fill markers"/>
</svg>

<svg xmlns="http://www.w3.org/2000/svg" width="16" height="16">
    <path fill="#050505" fill-opacity=".7" d="M8.469 6a.447.447 0 0 0-.125.027l-3 1a.499.499 0 1 0 .312.95l3-1A.502.502 0 0 0 8.47 6zm0 2a.447.447 0 0 0-.125.027l-3 1a.499.499 0 1 0 .312.95l3-1A.502.502 0 0 0 8.47 8zm0 2a.447.447 0 0 0-.125.027l-3 1a.499.499 0 1 0 .312.95l3-1A.502.502 0 0 0 8.47 10z"/>
    <path fill="#050505" fill-opacity=".7" d="M3.5 1A3.492 3.492 0 0 0 0 4.5a3.49 3.49 0 0 0 3 3.463V6.949A2.492 2.492 0 0 1 1 4.5C1 3.115 2.115 2 3.5 2h9C13.885 2 15 3.115 15 4.5a2.492 2.492 0 0 1-2 2.45v1.013A3.49 3.49 0 0 0 16 4.5C16 2.561 14.439 1 12.5 1h-9z" style="paint-order:stroke fill markers"/>
    <path fill="#050505" fill-opacity=".7" d="M2 7v6c0 1.108.892 2 2 2h8c1.108 0 2-.892 2-2V7h-1v6c0 .554-.446 1-1 1H4c-.554 0-1-.446-1-1V7H2z" style="paint-order:stroke fill markers"/>
    <path fill="#050505" fill-opacity=".7" d="M9 1v1h1.5C11.885 2 13 3.115 13 4.5a2.492 2.492 0 0 1-2 2.45V13c0 .554-.446 1-1 1H9v1h1c1.108 0 2-.892 2-2V7.66c1.184-.56 2-1.759 2-3.16C14 2.561 12.439 1 10.5 1H9z" style="paint-order:stroke fill markers"/>
</svg>
